; HEADER_BLOCK_START
; generated by OrcaSlicer 2.3.0-beta on 2025-10-28 at 09:34:01
; total layer number: 141
;_GP_TOTAL_LAYER_NUMBER_PLACEHOLDER
; filament_density: 1.24
; filament_diameter: 1.75
; max_z_height: 17.00
; HEADER_BLOCK_END

; THUMBNAIL_BLOCK_START

;
; THUMBNAIL_BLOCK_END

; external perimeters extrusion width = 0.40mm
; perimeters extrusion width = 0.45mm
; infill extrusion width = 0.45mm
; solid infill extrusion width = 0.40mm
; top infill extrusion width = 0.40mm
; first layer extrusion width = 0.50mm

; external perimeters extrusion width = 0.40mm
; perimeters extrusion width = 0.45mm
; infill extrusion width = 0.45mm
; solid infill extrusion width = 0.40mm
; top infill extrusion width = 0.40mm
; first layer extrusion width = 0.50mm

; EXECUTABLE_BLOCK_START
M73 P0 R154
M201 X500 Y500 Z100 E5000
M203 X500 Y500 Z10 E50
M204 P5000 R5000 T5000
M205 X10.00 Y10.00 Z0.40 E5.00 ; sets the jerk limits, mm/sec
;TYPE:Custom
M220 S100 ;Reset Feedrate
M221 S100 ;Reset Flowrate
M140 S60 ;Set final bed temp
M104 S220 ;Set final nozzle temp

G28 ;Home
G29 ;Auto bed leveling (create mesh if not already stored)
M420 S1 ;Enable mesh leveling

G92 E0 ;Reset Extruder
G1 Z2.0 F3000 ;Move Z Axis up
G1 X10.1 Y20 Z0.28 F5000.0 ;Move to start position
M190 S60 ;Wait for bed temp to stabilize
M109 S220 ;Wait for nozzle temp to stabilize
G1 X10.1 Y145.0 Z0.28 F1500.0 E15 ;Draw the first line
G1 X10.4 Y145.0 Z0.28 F5000.0 ;Move to side a little
G1 X10.4 Y20 Z0.28 F1500.0 E30 ;Draw the second line
G92 E0  ;Reset Extruder
G1 E-1.0000 F1800 ;Retract a bit
M73 P0 R153
G1 Z2.0 F3000 ;Move Z Axis up
G1 E0.0000 F1800
G90
G21
M83 ; use relative distances for extrusion
; filament start gcode
M106 S0
;LAYER_CHANGE
;Z:0.2
;HEIGHT:0.2
;BEFORE_LAYER_CHANGE
;0.2
G92 E0

G1 E-5 F3600
;_SET_FAN_SPEED_CHANGING_LAYER
M204 S500
; printing object oscilloscope_case-Lower case.stl id:3056 copy 0
G1 Z.6 F9000
G1 X140.836 Y81.164
G1 Z.6
G1 Z.2
G1 E5 F2400
;TYPE:Inner wall
;WIDTH:0.499999
G1 F900
G1 X140.836 Y138.836 E2.14805
G1 X112.164 Y138.836 E1.06791
G1 X112.164 Y81.164 E2.14805
G1 X140.796 Y81.164 E1.06642
G1 X141.212 Y80.834 F9000
G1 F900
G1 X141.228 Y80.848 E.00079
G1 X141.293 Y81.108 E.00999
G1 X141.293 Y138.877 E2.15167
G1 X141.257 Y139.081 E.00773
G1 X141.186 Y139.216 E.00568
G1 X140.948 Y139.293 E.00933
G1 X112.123 Y139.293 E1.07361
G1 X111.919 Y139.257 E.00773
G1 X111.784 Y139.186 E.00567
G1 X111.707 Y138.948 E.00934
G1 X111.707 Y81.123 E2.15375
G1 X111.743 Y80.919 E.00773
G1 X111.814 Y80.784 E.00568
G1 X112.052 Y80.707 E.00933
G1 X140.892 Y80.707 E1.07418
G1 X141.107 Y80.742 E.00811
G1 X141.182 Y80.807 E.00371
G1 X141.527 Y80.473 F9000
;TYPE:Outer wall
G1 F900
G1 X141.689 Y80.715 E.01083
G1 X141.75 Y81.108 E.01482
G1 X141.75 Y138.877 E2.15167
G1 X141.671 Y139.326 E.017
G1 X141.552 Y139.504 E.00798
G1 X141.336 Y139.659 E.00991
G1 X140.982 Y139.75 E.01361
G1 X112.123 Y139.75 E1.07486
G1 X111.674 Y139.671 E.017
G1 X111.496 Y139.552 E.00796
G1 X111.341 Y139.336 E.00991
G1 X111.25 Y138.982 E.01362
G1 X111.25 Y81.123 E2.155
G1 X111.329 Y80.674 E.017
G1 X111.448 Y80.496 E.00798
G1 X111.664 Y80.341 E.00991
G1 X112.018 Y80.25 E.01361
G1 X140.892 Y80.25 E1.07543
G1 X141.285 Y80.311 E.01482
G1 X141.494 Y80.451 E.00934
G1 E-3.5 F3600
;WIPE_START
G1 F900
G1 X141.689 Y80.715 E-.49218
G1 X141.75 Y81.108 E-.59693
G1 X141.75 Y81.382 E-.41089
;WIPE_END
G1 Z.6 F9000
G1 X140.699 Y82.232
G1 Z.6
G1 Z.2
G1 E5 F2400
;TYPE:Bottom surface
;WIDTH:0.503001
G1 F1200
G1 X139.974 Y81.507 E.03842
G1 X139.323 Y81.507 E.02439
G1 X140.493 Y82.677 E.06201
G1 X140.493 Y83.327 E.02439
G1 X138.673 Y81.507 E.09651
G1 X138.022 Y81.507 E.02439
G1 X140.493 Y83.978 E.13101
G1 X140.493 Y84.629 E.02439
G1 X137.371 Y81.507 E.16551
G1 X136.721 Y81.507 E.02439
G1 X140.493 Y85.279 E.2
G1 X140.493 Y85.93 E.02439
G1 X136.07 Y81.507 E.2345
G1 X135.419 Y81.507 E.02439
G1 X140.493 Y86.581 E.269
G1 X140.493 Y87.231 E.02439
G1 X134.769 Y81.507 E.3035
G1 X134.118 Y81.507 E.02439
G1 X140.493 Y87.882 E.33799
G1 X140.493 Y88.532 E.02439
G1 X133.468 Y81.507 E.37249
G1 X132.817 Y81.507 E.02439
G1 X140.493 Y89.183 E.40699
G1 X140.493 Y89.834 E.02439
G1 X132.166 Y81.507 E.44149
G1 X131.516 Y81.507 E.02439
G1 X140.493 Y90.484 E.47598
G1 X140.493 Y91.135 E.02439
G1 X130.865 Y81.507 E.51048
G1 X130.214 Y81.507 E.02439
G1 X140.493 Y91.786 E.54498
G1 X140.493 Y92.436 E.02439
G1 X129.564 Y81.507 E.57948
G1 X128.913 Y81.507 E.02439
G1 X140.493 Y93.087 E.61397
G1 X140.493 Y93.738 E.02439
G1 X128.262 Y81.507 E.64847
G1 X127.612 Y81.507 E.02439
G1 X140.493 Y94.388 E.68297
G1 X140.493 Y95.039 E.02439
G1 X126.961 Y81.507 E.71747
G1 X126.31 Y81.507 E.02439
G1 X140.493 Y95.69 E.75197
G1 X140.493 Y96.34 E.02439
G1 X125.66 Y81.507 E.78646
G1 X125.009 Y81.507 E.02439
G1 X140.493 Y96.991 E.82096
G1 X140.493 Y97.642 E.02439
G1 X124.358 Y81.507 E.85546
G1 X123.708 Y81.507 E.02439
G1 X140.493 Y98.292 E.88996
G1 X140.493 Y98.943 E.02439
G1 X123.057 Y81.507 E.92445
G1 X122.406 Y81.507 E.02439
M73 P0 R152
G1 X140.493 Y99.594 E.95895
G1 X140.493 Y100.244 E.02439
G1 X121.756 Y81.507 E.99345
G1 X121.105 Y81.507 E.02439
G1 X140.493 Y100.895 E1.02795
G1 X140.493 Y101.546 E.02439
G1 X120.454 Y81.507 E1.06244
G1 X119.804 Y81.507 E.02439
G1 X140.493 Y102.196 E1.09694
G1 X140.493 Y102.847 E.02439
G1 X119.153 Y81.507 E1.13144
G1 X118.503 Y81.507 E.02439
G1 X140.493 Y103.497 E1.16594
G1 X140.493 Y104.148 E.02439
G1 X117.852 Y81.507 E1.20043
G1 X117.201 Y81.507 E.02439
G1 X140.493 Y104.799 E1.23493
G1 X140.493 Y105.449 E.02439
G1 X116.551 Y81.507 E1.26943
G1 X115.9 Y81.507 E.02439
G1 X140.493 Y106.1 E1.30393
G1 X140.493 Y106.751 E.02439
G1 X115.249 Y81.507 E1.33842
G1 X114.599 Y81.507 E.02439
G1 X140.493 Y107.401 E1.37292
G1 X140.493 Y108.052 E.02439
G1 X113.948 Y81.507 E1.40742
G1 X113.297 Y81.507 E.02439
G1 X140.493 Y108.703 E1.44192
G1 X140.493 Y109.353 E.02439
G1 X112.647 Y81.507 E1.47641
G1 X112.507 Y81.507 E.00524
M73 P1 R152
G1 X112.507 Y82.018 E.01916
G1 X140.493 Y110.004 E1.48382
G1 X140.493 Y110.655 E.02439
G1 X112.507 Y82.669 E1.48382
G1 X112.507 Y83.319 E.02439
G1 X140.493 Y111.305 E1.48382
G1 X140.493 Y111.956 E.02439
G1 X112.507 Y83.97 E1.48382
G1 X112.507 Y84.621 E.02439
G1 X140.493 Y112.607 E1.48382
G1 X140.493 Y113.257 E.02439
G1 X112.507 Y85.271 E1.48382
G1 X112.507 Y85.922 E.02439
G1 X140.493 Y113.908 E1.48382
G1 X140.493 Y114.559 E.02439
G1 X112.507 Y86.573 E1.48382
G1 X112.507 Y87.223 E.02439
G1 X140.493 Y115.209 E1.48382
G1 X140.493 Y115.86 E.02439
G1 X112.507 Y87.874 E1.48382
G1 X112.507 Y88.524 E.02439
G1 X140.493 Y116.511 E1.48382
G1 X140.493 Y117.161 E.02439
G1 X112.507 Y89.175 E1.48382
G1 X112.507 Y89.826 E.02439
G1 X140.493 Y117.812 E1.48382
G1 X140.493 Y118.463 E.02439
G1 X112.507 Y90.476 E1.48382
G1 X112.507 Y91.127 E.02439
G1 X140.493 Y119.113 E1.48382
G1 X140.493 Y119.764 E.02439
G1 X112.507 Y91.778 E1.48382
G1 X112.507 Y92.428 E.02439
M73 P1 R151
G1 X140.493 Y120.414 E1.48382
G1 X140.493 Y121.065 E.02439
G1 X112.507 Y93.079 E1.48382
G1 X112.507 Y93.73 E.02439
G1 X140.493 Y121.716 E1.48382
G1 X140.493 Y122.366 E.02439
G1 X112.507 Y94.38 E1.48382
G1 X112.507 Y95.031 E.02439
G1 X140.493 Y123.017 E1.48382
G1 X140.493 Y123.668 E.02439
G1 X112.507 Y95.682 E1.48382
G1 X112.507 Y96.332 E.02439
G1 X140.493 Y124.318 E1.48382
G1 X140.493 Y124.969 E.02439
G1 X112.507 Y96.983 E1.48382
G1 X112.507 Y97.634 E.02439
G1 X140.493 Y125.62 E1.48382
G1 X140.493 Y126.27 E.02439
G1 X112.507 Y98.284 E1.48382
G1 X112.507 Y98.935 E.02439
G1 X140.493 Y126.921 E1.48382
G1 X140.493 Y127.572 E.02439
G1 X112.507 Y99.586 E1.48382
G1 X112.507 Y100.236 E.02439
G1 X140.493 Y128.222 E1.48382
G1 X140.493 Y128.873 E.02439
G1 X112.507 Y100.887 E1.48382
G1 X112.507 Y101.538 E.02439
G1 X140.493 Y129.524 E1.48382
G1 X140.493 Y130.174 E.02439
G1 X112.507 Y102.188 E1.48382
G1 X112.507 Y102.839 E.02439
G1 X140.493 Y130.825 E1.48382
G1 X140.493 Y131.476 E.02439
G1 X112.507 Y103.489 E1.48382
G1 X112.507 Y104.14 E.02439
G1 X140.493 Y132.126 E1.48382
G1 X140.493 Y132.777 E.02439
G1 X112.507 Y104.791 E1.48382
G1 X112.507 Y105.441 E.02439
G1 X140.493 Y133.428 E1.48382
G1 X140.493 Y134.078 E.02439
G1 X112.507 Y106.092 E1.48382
G1 X112.507 Y106.743 E.02439
G1 X140.493 Y134.729 E1.48382
G1 X140.493 Y135.379 E.02439
G1 X112.507 Y107.393 E1.48382
G1 X112.507 Y108.044 E.02439
G1 X140.493 Y136.03 E1.48382
G1 X140.493 Y136.681 E.02439
G1 X112.507 Y108.695 E1.48382
G1 X112.507 Y109.345 E.02439
G1 X140.493 Y137.331 E1.48382
G1 X140.493 Y137.982 E.02439
G1 X112.507 Y109.996 E1.48382
G1 X112.507 Y110.647 E.02439
G1 X140.353 Y138.493 E1.47641
G1 X139.703 Y138.493 E.02439
G1 X112.507 Y111.297 E1.44192
G1 X112.507 Y111.948 E.02439
M73 P2 R150
G1 X139.052 Y138.493 E1.40742
G1 X138.401 Y138.493 E.02439
G1 X112.507 Y112.599 E1.37292
G1 X112.507 Y113.249 E.02439
G1 X137.751 Y138.493 E1.33842
G1 X137.1 Y138.493 E.02439
G1 X112.507 Y113.9 E1.30392
G1 X112.507 Y114.551 E.02439
G1 X136.449 Y138.493 E1.26943
G1 X135.799 Y138.493 E.02439
G1 X112.507 Y115.201 E1.23493
G1 X112.507 Y115.852 E.02439
G1 X135.148 Y138.493 E1.20043
G1 X134.497 Y138.493 E.02439
G1 X112.507 Y116.503 E1.16593
G1 X112.507 Y117.153 E.02439
G1 X133.847 Y138.493 E1.13144
G1 X133.196 Y138.493 E.02439
G1 X112.507 Y117.804 E1.09694
G1 X112.507 Y118.455 E.02439
G1 X132.545 Y138.493 E1.06244
G1 X131.895 Y138.493 E.02439
G1 X112.507 Y119.105 E1.02794
G1 X112.507 Y119.756 E.02439
G1 X131.244 Y138.493 E.99345
G1 X130.594 Y138.493 E.02439
G1 X112.507 Y120.406 E.95895
G1 X112.507 Y121.057 E.02439
G1 X129.943 Y138.493 E.92445
G1 X129.292 Y138.493 E.02439
G1 X112.507 Y121.708 E.88995
G1 X112.507 Y122.358 E.02439
G1 X128.642 Y138.493 E.85546
G1 X127.991 Y138.493 E.02439
G1 X112.507 Y123.009 E.82096
G1 X112.507 Y123.66 E.02439
G1 X127.34 Y138.493 E.78646
G1 X126.69 Y138.493 E.02439
G1 X112.507 Y124.31 E.75196
G1 X112.507 Y124.961 E.02439
G1 X126.039 Y138.493 E.71747
G1 X125.388 Y138.493 E.02439
G1 X112.507 Y125.612 E.68297
G1 X112.507 Y126.262 E.02439
G1 X124.738 Y138.493 E.64847
G1 X124.087 Y138.493 E.02439
G1 X112.507 Y126.913 E.61397
G1 X112.507 Y127.564 E.02439
G1 X123.436 Y138.493 E.57948
G1 X122.786 Y138.493 E.02439
G1 X112.507 Y128.214 E.54498
G1 X112.507 Y128.865 E.02439
G1 X122.135 Y138.493 E.51048
G1 X121.484 Y138.493 E.02439
G1 X112.507 Y129.516 E.47598
G1 X112.507 Y130.166 E.02439
G1 X120.834 Y138.493 E.44149
G1 X120.183 Y138.493 E.02439
G1 X112.507 Y130.817 E.40699
G1 X112.507 Y131.468 E.02439
G1 X119.532 Y138.493 E.37249
G1 X118.882 Y138.493 E.02439
G1 X112.507 Y132.118 E.33799
G1 X112.507 Y132.769 E.02439
G1 X118.231 Y138.493 E.3035
G1 X117.58 Y138.493 E.02439
G1 X112.507 Y133.42 E.269
G1 X112.507 Y134.07 E.02439
G1 X116.93 Y138.493 E.2345
G1 X116.279 Y138.493 E.02439
G1 X112.507 Y134.721 E.2
G1 X112.507 Y135.371 E.02439
G1 X115.629 Y138.493 E.1655
G1 X114.978 Y138.493 E.02439
G1 X112.507 Y136.022 E.13101
G1 X112.507 Y136.673 E.02439
G1 X114.327 Y138.493 E.09651
G1 X113.677 Y138.493 E.02439
G1 X112.507 Y137.323 E.06201
G1 X112.507 Y137.974 E.02439
G1 X113.232 Y138.699 E.03842
; stop printing object oscilloscope_case-Lower case.stl id:3056 copy 0
; printing object oscilloscope_case-Upper case.stl id:3056 copy 0
G1 E-3.5 F3600
;WIPE_START
G1 F1200
G1 X112.524 Y137.992 E-1.5
;WIPE_END
G1 Z.6 F9000
G1 X82.358 Y82.076 Z.6
G1 Z.2
G1 E5 F2400
;TYPE:Inner wall
;WIDTH:0.499999
G1 F900
G1 X82.465 Y82.225 E.00685
G1 X82.648 Y82.799 E.02241
G1 X82.656 Y83.062 E.00983
G1 X82.578 Y83.508 E.01687
G1 X82.387 Y83.92 E.01691
;WIDTH:0.539345
G1 X82.293 Y84.054 E.00659
;WIDTH:0.578691
G1 X82.2 Y84.187 E.00712
;WIDTH:0.618036
G1 X82.106 Y84.321 E.00764
G1 X82.262 Y84.286 E.00746
;WIDTH:0.578691
G1 X82.417 Y84.251 E.00695
;WIDTH:0.539345
G1 X82.572 Y84.217 E.00644
;WIDTH:0.499999
G1 X86.771 Y84.206 E.15641
G1 X87.091 Y84.252 E.01204
G1 X87.375 Y84.378 E.01157
G1 X87.599 Y84.56 E.01075
G1 X87.756 Y84.768 E.0097
G1 X87.914 Y85.211 E.01752
G1 X87.914 Y114.791 E1.10174
G1 X87.839 Y115.198 E.0154
G1 X87.641 Y115.533 E.01451
G1 X87.326 Y115.791 E.01515
G1 X86.938 Y115.934 E.01542
G1 X82.729 Y115.934 E.15677
G1 X82.289 Y115.846 E.01669
G1 X82.043 Y115.706 E.01056
G1 X81.814 Y115.477 E.01204
G1 X81.648 Y115.162 E.01328
G1 X81.586 Y114.791 E.01399
G1 X81.586 Y85.349 E1.09664
G1 X81.663 Y84.936 E.01564
;WIDTH:0.539346
G1 X81.754 Y84.772 E.00759
;WIDTH:0.578692
G1 X81.846 Y84.608 E.00819
;WIDTH:0.618038
G1 X81.937 Y84.444 E.00879
G1 X81.754 Y84.502 E.009
;WIDTH:0.578692
G1 X81.571 Y84.561 E.00839
;WIDTH:0.539346
G1 X81.388 Y84.619 E.00777
;WIDTH:0.499999
G1 X80.906 Y84.659 E.01802
G1 X80.531 Y84.59 E.01418
G1 X80.337 Y84.519 E.0077
G1 X79.951 Y84.283 E.01687
G1 X79.799 Y84.142 E.0077
G1 X79.535 Y83.775 E.01687
G1 X79.461 Y83.581 E.00772
;WIDTH:0.474578
G1 X79.445 Y83.366 E.00758
;WIDTH:0.4368
G1 X79.429 Y83.151 E.00692
;WIDTH:0.399022
G1 X79.413 Y82.936 E.00625
;WIDTH:0.402755
G1 X79.468 Y82.623 E.00932
;WIDTH:0.444266
G1 X79.524 Y82.31 E.0104
;WIDTH:0.487435
G1 X79.575 Y82.2 E.00437
;WIDTH:0.530604
G1 X79.626 Y82.091 E.0048
;WIDTH:0.573773
G1 X79.677 Y81.982 E.00522
;WIDTH:0.616942
G1 X79.728 Y81.872 E.00565
;WIDTH:0.66011
G1 X79.779 Y81.763 E.00607
G1 X79.901 Y81.709 E.00671
;WIDTH:0.613997
G1 X80.024 Y81.656 E.00621
;WIDTH:0.567884
G1 X80.146 Y81.603 E.00571
;WIDTH:0.521771
G1 X80.268 Y81.55 E.00521
;WIDTH:0.475658
G1 X80.391 Y81.496 E.00471
;WIDTH:0.429544
G1 X80.604 Y81.458 E.00683
;WIDTH:0.39773
G1 X80.818 Y81.42 E.00627
;WIDTH:0.41061
G1 X81.035 Y81.417 E.0065
;WIDTH:0.455305
G1 X81.252 Y81.413 E.00729
;WIDTH:0.499999
G1 X81.469 Y81.41 E.00808
G1 X81.663 Y81.481 E.0077
G1 X82.049 Y81.717 E.01687
G1 X82.201 Y81.858 E.0077
G1 X82.335 Y82.044 E.00853
G1 E-3.5 F3600
;WIPE_START
G1 F900
G1 X82.465 Y82.225 E-.33577
G1 X82.648 Y82.799 E-.90243
G1 X82.654 Y82.973 E-.26181
;WIPE_END
G1 Z.6 F9000
G1 X87.445 Y85.274 Z.6
G1 Z.2
G1 E5 F2400
G1 F900
G1 X87.457 Y85.349 E.0028
G1 X87.457 Y114.791 E1.09664
G1 X87.393 Y115.08 E.01101
G1 X87.208 Y115.32 E.01131
G1 X86.889 Y115.477 E.01322
G1 X82.729 Y115.477 E.15497
G1 X82.465 Y115.424 E.01002
G1 X82.18 Y115.203 E.01344
G1 X82.043 Y114.886 E.01285
G1 X82.044 Y85.305 E1.1018
G1 X82.089 Y85.101 E.00777
G1 X82.277 Y84.833 E.0122
G1 X82.53 Y84.692 E.01077
G1 X83.053 Y84.663 E.01952
G1 X86.771 Y84.663 E.13849
G1 X86.963 Y84.69 E.00722
G1 X87.268 Y84.876 E.01328
G1 X87.42 Y85.126 E.01091
G1 X87.438 Y85.235 E.00411
G1 X87 Y85.349 F9000
;TYPE:Outer wall
G1 F900
G1 X87 Y114.791 E1.09664
G1 X86.936 Y114.951 E.00639
G1 X86.771 Y115.02 E.00664
G1 X82.729 Y115.02 E.15058
G1 X82.591 Y114.974 E.00538
G1 X82.5 Y114.825 E.00651
G1 X82.5 Y85.805 E1.08089
G1 X82.515 Y85.266 E.02009
G1 X82.642 Y85.13 E.00692
G1 X86.771 Y85.12 E.1538
G1 X86.937 Y85.191 E.00671
G1 X86.985 Y85.311 E.00483
G1 E-3.5 F3600
;WIPE_START
G1 F900
G1 X86.986 Y86.311 E-1.5
;WIPE_END
G1 Z.6 F9000
G1 X107.444 Y82.263 Z.6
G1 Z.2
G1 E5 F2400
;TYPE:Inner wall
;WIDTH:0.512174
G1 F900
G1 X107.462 Y82.305 E.00175
;WIDTH:0.466477
G1 X107.514 Y82.43 E.00469
;WIDTH:0.420779
G1 X107.551 Y82.747 E.00982
;WIDTH:0.391011
G1 X107.587 Y83.064 E.00905
;WIDTH:0.407008
G1 X107.571 Y83.282 E.00648
;WIDTH:0.452772
G1 X107.556 Y83.5 E.00729
;WIDTH:0.499999
G1 X107.502 Y83.7 E.00774
G1 X107.152 Y84.193 E.02251
G1 X106.811 Y84.446 E.01582
G1 X106.625 Y84.535 E.00769
M73 P2 R149
G1 X106.186 Y84.647 E.01687
G1 X105.726 Y84.642 E.01714
G1 X105.202 Y84.46 E.02064
G1 X104.799 Y84.142 E.01912
G1 X104.614 Y83.92 E.01076
G1 X104.384 Y83.398 E.02125
G1 X104.344 Y82.938 E.01721
G1 X104.422 Y82.492 E.01687
G1 X104.498 Y82.3 E.00769
G1 X104.848 Y81.807 E.02251
G1 X105.189 Y81.554 E.01582
G1 X105.379 Y81.471 E.0077
;WIDTH:0.485375
G1 X105.525 Y81.454 E.00531
;WIDTH:0.445547
G1 X105.671 Y81.437 E.00483
;WIDTH:0.405719
G1 X105.818 Y81.42 E.00436
;WIDTH:0.398261
G1 X106.451 Y81.458 E.01838
;WIDTH:0.446316
G1 X106.609 Y81.514 E.00549
;WIDTH:0.494371
G1 X106.766 Y81.571 E.00615
;WIDTH:0.542426
G1 X106.923 Y81.627 E.0068
;WIDTH:0.59048
G1 X107.08 Y81.684 E.00745
;WIDTH:0.619873
G1 X107.166 Y81.743 E.00491
;WIDTH:0.649266
G1 X107.252 Y81.803 E.00516
